Sources/FrostedUI/Resources/Icons.xcassets/gamepad20.imageset/gamepad-20.svg

<svg width="20" height="20" viewBox="0 0 20 20" fill="none" xmlns="http://www.w3.org/2000/svg" data-fui-icon="true">
  <path
    d="M13.5433 2.75C16.4638 2.7501 18.9204 4.93957 19.2552 7.84082L19.9232 13.6279C20.1456 15.5573 18.6369 17.2498 16.6947 17.25H16.3324C15.6294 17.2498 14.9446 17.0214 14.3822 16.5996L12.7162 15.3496C12.4134 15.1227 12.0448 15 11.6664 15H8.33337C7.95492 15.0001 7.58537 15.1225 7.28259 15.3496L5.6156 16.5996C5.05319 17.0213 4.36931 17.2499 3.66638 17.25H3.30408C1.36213 17.2495 -0.146733 15.5572 0.0755615 13.6279L0.74353 7.84082C1.07832 4.93969 3.53513 2.75034 6.45544 2.75H13.5433ZM6.45544 4.25C4.29706 4.25034 2.48126 5.86849 2.23376 8.0127L1.5658 13.7998C1.44622 14.8384 2.25866 15.7495 3.30408 15.75H3.66638C4.04475 15.7499 4.41342 15.6273 4.71619 15.4004L6.38318 14.1504C6.94559 13.7286 7.63039 13.5001 8.33337 13.5H11.6664C12.3695 13.5 13.0541 13.7286 13.6166 14.1504L15.2826 15.4004C15.5853 15.6274 15.9541 15.7498 16.3324 15.75H16.6947C17.7404 15.7498 18.5526 14.8386 18.433 13.7998L17.765 8.0127C17.5175 5.86837 15.7019 4.2501 13.5433 4.25H6.45544ZM6.87537 6.4375C7.28936 6.4377 7.62529 6.77347 7.62537 7.1875V8.3125H8.75037C9.16436 8.3127 9.50029 8.64847 9.50037 9.0625C9.50037 9.47659 9.16441 9.8123 8.75037 9.8125H7.62537V10.9375C7.62537 11.3516 7.28941 11.6873 6.87537 11.6875C6.46115 11.6875 6.12537 11.3517 6.12537 10.9375V9.8125H5.00037C4.58615 9.8125 4.25037 9.47671 4.25037 9.0625C4.25044 8.64835 4.5862 8.3125 5.00037 8.3125H6.12537V7.1875C6.12544 6.77335 6.4612 6.4375 6.87537 6.4375ZM12.5004 9.5C13.0523 9.50032 13.5003 9.948 13.5004 10.5C13.5003 11.052 13.0523 11.4997 12.5004 11.5C11.9481 11.5 11.5004 11.0522 11.5004 10.5C11.5005 9.9478 11.9481 9.5 12.5004 9.5ZM14.5004 6.5C15.0524 6.50019 15.5003 6.94791 15.5004 7.5C15.5003 8.05211 15.0524 8.49981 14.5004 8.5C13.9481 8.5 13.5004 8.05223 13.5004 7.5C13.5005 6.9478 13.9481 6.5 14.5004 6.5Z"
    fill="currentColor"
  />
</svg>

<svg xmlns="http://www.w3.org/2000/svg" width="20" height="20" fill="none" data-fui-icon="true" viewBox="0 0 20 20"><path fill="currentColor" d="M13.543 2.75a5.75 5.75 0 0 1 5.712 5.09l.668 5.788a3.25 3.25 0 0 1-3.228 3.622h-.363a3.25 3.25 0 0 1-1.95-.65l-1.666-1.25a1.75 1.75 0 0 0-1.05-.35H8.333c-.378 0-.748.123-1.05.35L5.616 16.6a3.25 3.25 0 0 1-1.95.65h-.362a3.25 3.25 0 0 1-3.228-3.622L.744 7.84A5.75 5.75 0 0 1 6.455 2.75zm-7.088 1.5a4.25 4.25 0 0 0-4.221 3.763L1.566 13.8a1.75 1.75 0 0 0 1.738 1.95h.362c.379 0 .747-.123 1.05-.35l1.667-1.25a3.25 3.25 0 0 1 1.95-.65h3.333c.704 0 1.388.229 1.95.65l1.667 1.25c.302.227.671.35 1.05.35h.362a1.75 1.75 0 0 0 1.738-1.95l-.668-5.787a4.25 4.25 0 0 0-4.222-3.763zm.42 2.188a.75.75 0 0 1 .75.75v1.125H8.75a.75.75 0 0 1 0 1.5H7.625v1.124a.75.75 0 0 1-1.5 0V9.814H5a.75.75 0 1 1 0-1.5h1.125V7.187a.75.75 0 0 1 .75-.75M12.5 9.5a1 1 0 1 1-.001 2.001A1 1 0 0 1 12.5 9.5m2-3a1 1 0 1 1 0 2.001 1 1 0 0 1 0-2.001"/></svg>
